X:909
T:Huish the Cat.
T:Hush the Cat.
T:Dance Light, For My Heart Lies Under Your Feet.
B:O'Neill's 909
Z:Transcribed by Tom Keays (htkeays@mailbox.syr.edu)
Z:abc 1.6
M:6/8
R:Jig
L:1/8
K:Gmix
GAG c2e|ddA c2e|GAG c2d|ecA A2c|
GAG c2e|ddA c2e|gfe f2d|ecA A2BAG :|
||gfe f2d|edc f2d|gfe f2d|edA A2G|
gfe f2d|edc f2d|GAG f2d|ecA A2BAG :|
